X:171
T:Friarevisa.
S:Uppt. efter skolläraren Aug. Lingström, Klintehamn.
M:3/4
L:1/8
K:C
G> c c c c c|B> A A B G2|
w:1.~Ja-kå Smis-sa-rä drägd fräi-ar-styv-lar pa,
LA2 F> E F A|G> F E G c2|:LE2 G G G G|
w:hajj fal-li-ra, drägd fräi-ar-styv-lar pa. Så raid ’n av ti
LF2 A A A c|(cB) B G A B|d2 c2 z2:|
w:Au-sa-rä gard, u rai — fal-li ral-li ral-len.
W:2. När sum ’n komm ti Ausarä gard,
W:   svärfadan äut mout Smissarjaken gar.
